logos/neuronex.svg

<?xml version="1.0" encoding="UTF-8"?>
<svg width="365px" height="58px" viewBox="0 0 365 58" version="1.1" xmlns="http://www.w3.org/2000/svg" xmlns:xlink="http://www.w3.org/1999/xlink">
    <!-- Generator: Sketch 50.2 (55047) - http://www.bohemiancoding.com/sketch -->
    <title>neuronex-logo-bright-green</title>
    <desc>Created with Sketch.</desc>
    <defs></defs>
    <g id="neuronex-logo-bright-green" stroke="none" stroke-width="1" fill="none" fill-rule="evenodd">
        <path d="M336.9609,42.1283 C336.4389,41.2813 335.9279,40.5613 335.4299,39.9553 L333.8539,42.0543 L322.6989,56.9063 L323.4569,56.9063 L334.0449,56.9063 L338.3539,50.8023 C338.6369,49.9893 338.7809,49.1633 338.7809,48.3223 C338.7809,47.1873 338.6119,46.0903 338.2769,45.0313 C337.9409,43.9743 337.5029,43.0063 336.9609,42.1283 Z M349.4859,35.6643 L363.5629,16.8953 L352.2159,16.8953 L344.1119,28.4973 L336.0929,16.8953 L323.3809,16.8953 L337.8839,36.6883 L343.2589,43.8543 L352.3869,56.9063 L365.0989,56.9063 L349.4859,35.6643 Z M130.0749,38.5703 C130.0749,40.0503 129.8329,41.4293 129.3499,42.7093 C128.8659,43.9883 128.1979,45.1123 127.3439,46.0793 C126.4909,47.0483 125.4669,47.8013 124.2719,48.3413 C123.0779,48.8823 121.7979,49.1513 120.4319,49.1513 C118.2139,49.1513 116.4069,48.4553 115.0139,47.0613 C113.6189,45.6673 112.9229,43.6903 112.9229,41.1303 L112.9229,16.8963 L102.8539,16.8963 L102.8539,41.2153 C102.8539,46.2793 104.1619,50.3033 106.7789,53.2903 C109.3959,56.2773 113.2069,57.7703 118.2139,57.7703 C119.8059,57.7703 121.2289,57.6003 122.4799,57.2583 C123.7309,56.9173 124.8399,56.4773 125.8079,55.9363 C126.7749,55.3963 127.6279,54.8133 128.3679,54.1863 C129.1069,53.5613 129.7329,52.9633 130.2459,52.3953 L130.5019,56.9173 L140.1449,56.9173 L140.1449,16.8963 L130.0749,16.8963 L130.0749,38.5703 Z M210.1929,36.8633 C210.1929,35.4423 209.9649,33.9773 209.5099,32.4693 C209.0549,30.9623 208.3579,29.5973 207.4199,28.3733 C206.4819,27.1493 205.2999,26.1543 203.8789,25.3863 C202.4559,24.6183 200.7769,24.2343 198.8439,24.2343 C196.9089,24.2343 195.2309,24.6183 193.8099,25.3863 C192.3869,26.1543 191.2069,27.1493 190.2679,28.3733 C189.3289,29.5973 188.6319,30.9623 188.1769,32.4693 C187.7209,33.9773 187.4939,35.4423 187.4939,36.8633 C187.4939,38.3433 187.7209,39.8213 188.1769,41.3013 C188.6319,42.7803 189.3289,44.1473 190.2679,45.3973 C191.2069,46.6493 192.3869,47.6583 193.8099,48.4263 C195.2309,49.1943 196.9089,49.5783 198.8439,49.5783 C200.7769,49.5783 202.4559,49.1943 203.8789,48.4263 C205.2999,47.6583 206.4819,46.6493 207.4199,45.3973 C208.3579,44.1473 209.0549,42.7803 209.5099,41.3013 C209.9649,39.8213 210.1929,38.3433 210.1929,36.8633 Z M218.7689,28.6293 C219.8209,31.2193 220.3479,33.9623 220.3479,36.8633 C220.3479,39.7653 219.8209,42.5103 218.7689,45.0983 C217.7159,47.6873 216.2519,49.9623 214.3749,51.9253 C212.4969,53.8873 210.2359,55.4393 207.5899,56.5753 C204.9449,57.7133 202.0289,58.2813 198.8439,58.2813 C195.6569,58.2813 192.7419,57.7133 190.0969,56.5753 C187.4519,55.4393 185.1909,53.8873 183.3129,51.9253 C181.4359,49.9623 179.9709,47.6873 178.9189,45.0983 C177.8649,42.5103 177.3399,39.7653 177.3399,36.8633 C177.3399,33.9623 177.8649,31.2193 178.9189,28.6293 C179.9709,26.0413 181.4359,23.7793 183.3129,21.8453 C185.1909,19.9113 187.4519,18.3753 190.0969,17.2373 C192.7419,16.1003 195.6569,15.5303 198.8439,15.5303 C202.0289,15.5303 204.9449,16.1003 207.5899,17.2373 C210.2359,18.3753 212.4969,19.9113 214.3749,21.8453 C216.2519,23.7793 217.7159,26.0413 218.7689,28.6293 Z M170.8129,16.1273 C169.1629,16.1273 167.6979,16.3273 166.4189,16.7263 C165.1379,17.1243 164.0139,17.6073 163.0479,18.1753 C162.0799,18.7453 161.2409,19.3703 160.5299,20.0533 C159.8179,20.7353 159.2359,21.3623 158.7809,21.9313 L158.5249,16.8963 L148.8819,16.8963 L148.8819,56.9173 L158.9519,56.9173 L158.9519,35.3273 C158.9519,33.8493 159.2209,32.5123 159.7619,31.3163 C160.3029,30.1223 161.0279,29.0983 161.9389,28.2443 C162.8479,27.3923 163.9289,26.7373 165.1809,26.2813 C166.4319,25.8273 167.7409,25.6003 169.1059,25.6003 C170.0729,25.6003 170.9119,25.6573 171.6239,25.7713 C172.3339,25.8853 173.0319,26.0833 173.7139,26.3673 L175.7619,16.8963 C174.9649,16.6113 174.1839,16.4123 173.4159,16.2983 C172.6479,16.1853 171.7789,16.1273 170.8129,16.1273 Z M317.9569,22.7833 C316.4209,20.6223 314.3859,18.8723 311.8559,17.5363 C309.3239,16.2003 306.2369,15.5303 302.5969,15.5303 C299.5809,15.5303 296.8369,16.0713 294.3629,17.1513 C291.8879,18.2323 289.7539,19.7113 287.9619,21.5893 C286.1699,23.4673 284.7749,25.6713 283.7809,28.2023 C282.7849,30.7333 282.2879,33.4793 282.2879,36.4373 C282.2879,39.6793 282.7849,42.6383 283.7809,45.3123 C284.7749,47.9863 286.1979,50.2753 288.0469,52.1813 C289.8959,54.0873 292.1289,55.5813 294.7459,56.6603 C297.3619,57.7403 300.2629,58.2813 303.4509,58.2813 C306.5789,58.2813 309.2659,57.9413 311.5139,57.2583 C313.7609,56.5753 315.6099,55.8083 317.0609,54.9533 C318.5119,54.1013 319.6209,53.2903 320.3889,52.5223 C321.1569,51.7543 321.6269,51.2843 321.7969,51.1143 L316.3359,44.9703 C315.9939,45.3123 315.4959,45.7523 314.8419,46.2933 C314.1879,46.8343 313.3489,47.3463 312.3249,47.8293 C312.0389,47.9643 311.7319,48.0943 311.4119,48.2203 C310.5879,48.5463 309.6579,48.8433 308.6129,49.1083 C307.2789,49.4493 305.7309,49.6253 303.9879,49.6523 C303.8359,49.6543 303.6909,49.6633 303.5359,49.6633 C302.2269,49.6633 300.9039,49.4373 299.5679,48.9813 C298.2309,48.5263 297.0349,47.8713 295.9839,47.0193 C295.8819,46.9363 295.7909,46.8443 295.6929,46.7583 C295.6599,46.7323 295.6309,46.7013 295.5989,46.6743 C295.4469,46.5393 295.2949,46.4043 295.1529,46.2613 C295.0289,46.1443 294.8979,46.0363 294.7789,45.9143 C293.6419,44.7423 292.7679,43.3363 292.1569,41.6913 C291.5439,40.0493 291.2389,38.2313 291.2389,36.2373 C291.2389,34.4203 291.5439,32.7323 292.1569,31.1763 C292.6779,29.8493 293.3909,28.6763 294.2699,27.6403 C294.3609,27.5283 294.4569,27.4193 294.5549,27.3113 C294.6609,27.1933 294.7689,27.0773 294.8819,26.9643 C294.9239,26.9233 294.9599,26.8783 295.0029,26.8373 C295.0569,26.7843 295.1189,26.7373 295.1749,26.6873 C295.9999,25.9323 297.0029,25.2963 298.2019,24.7893 C299.4819,24.2493 300.9459,23.9793 302.5969,23.9793 C304.1329,23.9793 305.4989,24.2493 306.6929,24.7893 C307.8879,25.3303 308.8689,26.0133 309.6369,26.8373 C310.4049,27.6623 310.9869,28.5863 311.3859,29.6093 C311.7839,30.6343 311.9839,31.6583 311.9839,32.6823 L309.3099,32.6823 L308.3139,32.6823 L303.9809,32.6823 C302.9269,32.6823 302.0049,32.9093 301.2149,33.3643 C300.4249,33.8193 299.7429,34.4043 299.1689,35.1233 C298.5939,35.8423 298.1149,36.6313 297.7319,37.4933 C297.3479,38.3563 297.0369,39.1703 296.7989,39.9353 L308.3139,39.9353 L312.6699,39.9353 L322.3089,39.9353 L322.3089,38.4853 C322.3089,35.6413 321.9669,32.8533 321.2849,30.1223 C320.6019,27.3923 319.4929,24.9453 317.9569,22.7833 Z M265.3069,40.4473 L237.7439,0.0003 L226.9069,0.0003 L226.9069,56.9173 L237.4029,56.9173 L237.4029,15.9573 L265.2209,56.9173 L275.8029,56.9173 L275.8029,0.0003 L265.3069,0.0003 L265.3069,40.4473 Z M92.0509,22.7833 C90.5149,20.6223 88.4809,18.8723 85.9499,17.5363 C83.4179,16.2003 80.3309,15.5303 76.6899,15.5303 C73.6749,15.5303 70.9309,16.0713 68.4569,17.1513 C65.9819,18.2323 63.8489,19.7113 62.0569,21.5893 C60.2649,23.4673 58.8689,25.6713 57.8759,28.2023 C56.8789,30.7333 56.3819,33.4793 56.3819,36.4373 C56.3819,39.6793 56.8789,42.6383 57.8759,45.3123 C58.8689,47.9863 60.2919,50.2753 62.1419,52.1813 C63.9899,54.0873 66.2229,55.5813 68.8399,56.6603 C71.4559,57.7403 74.3569,58.2813 77.5439,58.2813 C80.6719,58.2813 83.3599,57.9413 85.6079,57.2583 C87.8549,56.5753 89.7049,55.8083 91.1549,54.9533 C92.6059,54.1013 93.7149,53.2903 94.4829,52.5223 C95.2509,51.7543 95.7199,51.2843 95.8909,51.1143 L90.4299,44.9703 C90.0879,45.3123 89.5889,45.7523 88.9369,46.2933 C88.2819,46.8343 87.4429,47.3463 86.4189,47.8293 C86.1329,47.9643 85.8259,48.0943 85.5059,48.2203 C84.6819,48.5463 83.7519,48.8433 82.7069,49.1083 C81.3729,49.4493 79.8239,49.6253 78.0829,49.6523 C77.9299,49.6543 77.7859,49.6633 77.6299,49.6633 C76.3199,49.6633 74.9979,49.4373 73.6619,48.9813 C72.3239,48.5263 71.1289,47.8713 70.0779,47.0193 C69.9759,46.9363 69.8849,46.8443 69.7869,46.7583 C69.7539,46.7323 69.7249,46.7013 69.6919,46.6743 C69.5419,46.5393 69.3889,46.4043 69.2469,46.2613 C69.1229,46.1443 68.9909,46.0363 68.8729,45.9143 C67.7359,44.7423 66.8619,43.3363 66.2509,41.6913 C65.6379,40.0493 65.3329,38.2313 65.3329,36.2373 C65.3329,34.4203 65.6379,32.7323 66.2509,31.1763 C66.7729,29.8493 67.4839,28.6763 68.3639,27.6403 C68.4559,27.5283 68.5509,27.4193 68.6489,27.3113 C68.7549,27.1933 68.8629,27.0773 68.9759,26.9643 C69.0179,26.9233 69.0539,26.8783 69.0959,26.8373 C69.1499,26.7843 69.2129,26.7373 69.2689,26.6873 C70.0929,25.9323 71.0969,25.2963 72.2959,24.7893 C73.5759,24.2493 75.0409,23.9793 76.6899,23.9793 C78.2269,23.9793 79.5929,24.2493 80.7869,24.7893 C81.9819,25.3303 82.9629,26.0133 83.7319,26.8373 C84.4999,27.6623 85.0819,28.5863 85.4799,29.6093 C85.8779,30.6343 86.0779,31.6583 86.0779,32.6823 L83.4029,32.6823 L82.4069,32.6823 L78.0749,32.6823 C77.0209,32.6823 76.0999,32.9093 75.3089,33.3643 C74.5199,33.8193 73.8369,34.4043 73.2619,35.1233 C72.6889,35.8423 72.2089,36.6313 71.8259,37.4933 C71.4419,38.3563 71.1309,39.1703 70.8929,39.9353 L82.4069,39.9353 L86.7639,39.9353 L96.4029,39.9353 L96.4029,38.4853 C96.4029,35.6413 96.0619,32.8533 95.3789,30.1223 C94.6959,27.3923 93.5869,24.9453 92.0509,22.7833 Z M38.3999,0.0003 L48.8959,0.0003 L48.8959,56.9173 L38.3149,56.9173 L10.4969,15.9573 L10.4969,56.9173 L-0.0001,56.9173 L-0.0001,0.0003 L10.8369,0.0003 L38.3999,40.4473 L38.3999,0.0003 Z" id="Fill-1" fill="#25CFBF"></path>
    </g>
</svg>

<svg width="365" height="58" xmlns="http://www.w3.org/2000/svg"><path d="M336.96 42.128a19.714 19.714 0 0 0-1.53-2.173l-1.576 2.1-11.155 14.851h11.346l4.309-6.104a7.495 7.495 0 0 0 .427-2.48c0-1.135-.17-2.232-.504-3.29a12.993 12.993 0 0 0-1.316-2.904zm12.526-6.464 14.077-18.769h-11.347l-8.104 11.602-8.02-11.602h-12.711l14.503 19.793 5.375 7.166 9.128 13.052h12.712l-15.613-21.242zM130.075 38.57c0 1.48-.242 2.86-.725 4.14a10.824 10.824 0 0 1-2.006 3.37 8.952 8.952 0 0 1-3.072 2.261 9.194 9.194 0 0 1-3.84.81c-2.218 0-4.025-.696-5.418-2.09-1.395-1.394-2.091-3.37-2.091-5.93V16.895h-10.07v24.32c0 5.063 1.309 9.087 3.926 12.074s6.428 4.48 11.435 4.48c1.592 0 3.015-.17 4.266-.512 1.25-.34 2.36-.78 3.328-1.322.967-.54 1.82-1.123 2.56-1.75a19.522 19.522 0 0 0 1.878-1.79l.256 4.521h9.643v-40.02h-10.07V38.57zm80.118-1.707c0-1.42-.228-2.886-.683-4.394a12.717 12.717 0 0 0-2.09-4.096c-.938-1.224-2.12-2.219-3.541-2.987-1.423-.768-3.102-1.152-5.035-1.152-1.935 0-3.613.384-5.034 1.152-1.423.768-2.603 1.763-3.542 2.987a12.7 12.7 0 0 0-2.091 4.096c-.456 1.508-.683 2.973-.683 4.394 0 1.48.227 2.958.683 4.438a13.273 13.273 0 0 0 2.09 4.096 10.737 10.737 0 0 0 3.543 3.03c1.42.767 3.099 1.151 5.034 1.151 1.933 0 3.612-.384 5.035-1.152a10.743 10.743 0 0 0 3.54-3.029 13.292 13.292 0 0 0 2.09-4.096c.456-1.48.684-2.958.684-4.438zm8.576-8.234c1.052 2.59 1.579 5.333 1.579 8.234 0 2.902-.527 5.647-1.58 8.235-1.052 2.59-2.516 4.864-4.393 6.827-1.878 1.962-4.14 3.514-6.785 4.65-2.645 1.138-5.561 1.706-8.746 1.706-3.187 0-6.102-.568-8.747-1.706-2.645-1.136-4.906-2.688-6.784-4.65-1.877-1.963-3.342-4.238-4.394-6.827-1.054-2.588-1.58-5.333-1.58-8.235 0-2.9.526-5.644 1.58-8.234 1.052-2.588 2.517-4.85 4.394-6.784 1.878-1.934 4.139-3.47 6.784-4.608 2.645-1.137 5.56-1.707 8.747-1.707 3.185 0 6.1.57 8.746 1.707 2.646 1.138 4.907 2.674 6.785 4.608 1.877 1.934 3.34 4.196 4.394 6.784zm-47.956-12.502c-1.65 0-3.115.2-4.394.6-1.281.397-2.405.88-3.371 1.448a13.498 13.498 0 0 0-2.518 1.878 19.676 19.676 0 0 0-1.75 1.878l-.255-5.035h-9.643v40.021h10.07v-21.59c0-1.478.269-2.815.81-4.01a9.572 9.572 0 0 1 2.177-3.073c.909-.852 1.99-1.507 3.242-1.963a11.419 11.419 0 0 1 3.925-.68c.967 0 1.806.056 2.518.17a9.23 9.23 0 0 1 2.09.596l2.048-9.47a12.348 12.348 0 0 0-2.346-.599 18.01 18.01 0 0 0-2.603-.17zm147.144 6.656c-1.536-2.16-3.571-3.91-6.101-5.247-2.532-1.336-5.62-2.006-9.26-2.006-3.015 0-5.76.541-8.233 1.621-2.475 1.081-4.61 2.56-6.401 4.438-1.792 1.878-3.187 4.082-4.181 6.613-.996 2.531-1.493 5.277-1.493 8.235 0 3.242.497 6.201 1.493 8.875.994 2.674 2.417 4.963 4.266 6.87 1.849 1.905 4.082 3.4 6.699 4.478 2.616 1.08 5.517 1.621 8.705 1.621 3.128 0 5.815-.34 8.063-1.023 2.247-.683 4.096-1.45 5.547-2.305 1.45-.852 2.56-1.663 3.328-2.43l1.408-1.409-5.461-6.144c-.342.342-.84.782-1.494 1.323-.654.541-1.493 1.053-2.517 1.536a15.18 15.18 0 0 1-.913.391c-.824.326-1.754.623-2.8.888-1.333.341-2.881.517-4.624.544-.152.002-.297.011-.452.011-1.31 0-2.632-.226-3.968-.682a11.55 11.55 0 0 1-3.584-1.962c-.102-.083-.193-.175-.291-.26-.033-.027-.062-.058-.094-.085-.152-.135-.304-.27-.446-.413-.124-.117-.255-.225-.374-.347-1.137-1.172-2.011-2.578-2.622-4.223-.613-1.642-.918-3.46-.918-5.454 0-1.817.305-3.505.918-5.06a12.472 12.472 0 0 1 2.113-3.537c.09-.112.187-.22.285-.329.106-.118.214-.234.327-.347.042-.04.078-.086.12-.127.055-.053.117-.1.173-.15.825-.755 1.828-1.39 3.027-1.898 1.28-.54 2.744-.81 4.395-.81 1.536 0 2.902.27 4.096.81 1.195.541 2.176 1.224 2.944 2.048a8.65 8.65 0 0 1 1.749 2.772 8.437 8.437 0 0 1 .598 3.073h-8.003c-1.054 0-1.976.227-2.766.682a7.18 7.18 0 0 0-2.046 1.76 10.789 10.789 0 0 0-1.437 2.37 22.444 22.444 0 0 0-.933 2.441H322.309v-1.45a34.39 34.39 0 0 0-1.024-8.363c-.683-2.73-1.792-5.177-3.328-7.339zm-52.65 17.664L237.744 0h-10.837v56.917h10.496v-40.96l27.818 40.96h10.582V0h-10.496v40.447zM92.05 22.783c-1.536-2.16-3.57-3.91-6.101-5.247-2.532-1.336-5.62-2.006-9.26-2.006-3.015 0-5.76.541-8.233 1.621-2.475 1.081-4.608 2.56-6.4 4.438-1.792 1.878-3.188 4.082-4.181 6.613-.997 2.531-1.494 5.277-1.494 8.235 0 3.242.497 6.201 1.494 8.875.993 2.674 2.416 4.963 4.266 6.87 1.848 1.905 4.08 3.4 6.698 4.478 2.616 1.08 5.517 1.621 8.704 1.621 3.128 0 5.816-.34 8.064-1.023 2.247-.683 4.097-1.45 5.547-2.305 1.45-.852 2.56-1.663 3.328-2.43l1.408-1.409-5.461-6.144c-.342.342-.841.782-1.493 1.323-.655.541-1.494 1.053-2.518 1.536a15.18 15.18 0 0 1-.913.391c-.824.326-1.754.623-2.8.888-1.333.341-2.882.517-4.623.544-.153.002-.297.011-.453.011-1.31 0-2.632-.226-3.968-.682a11.539 11.539 0 0 1-3.584-1.962c-.102-.083-.193-.175-.291-.26-.033-.027-.062-.058-.095-.085-.15-.135-.303-.27-.445-.413-.124-.117-.256-.225-.374-.347-1.137-1.172-2.011-2.578-2.622-4.223-.613-1.642-.918-3.46-.918-5.454 0-1.817.305-3.505.918-5.06a12.472 12.472 0 0 1 2.113-3.537 8.83 8.83 0 0 1 .285-.329c.106-.118.214-.234.327-.347.042-.04.078-.086.12-.127.054-.053.117-.1.173-.15.824-.755 1.828-1.39 3.027-1.898 1.28-.54 2.745-.81 4.394-.81 1.537 0 2.903.27 4.097.81 1.195.541 2.176 1.224 2.945 2.048a8.63 8.63 0 0 1 1.748 2.772 8.437 8.437 0 0 1 .598 3.073h-8.003c-1.054 0-1.975.227-2.766.682a7.211 7.211 0 0 0-2.047 1.76 10.862 10.862 0 0 0-1.436 2.37 22.444 22.444 0 0 0-.933 2.441H96.403v-1.45a34.34 34.34 0 0 0-1.024-8.363c-.683-2.73-1.792-5.177-3.328-7.339zM38.4 0h10.496v56.917H38.315l-27.818-40.96v40.96H0V0h10.837L38.4 40.447V0z" fill="#25CFBF" fill-rule="evenodd"/></svg>
